X:1
T:89TresVoces
T:
I:linebreak !
L:1/4
K:Ebmaj
V:1 clef=treble
G4 |A4 |B4|c4|d4|B4|c4|=B4|c4|
V:2 clef=treble
z2 E2 |D2 C2 |B,2 A,2|G,2 G2|F2 D2|E2D2|C2E2|F4|G4|
V:3 clef=bass
C,4 |F,4 |D,4|E,4|F,4|G,4|E,4|D,4|C,4|
W:En el ejempio 89 los acordes sobre los segundos tiempos de los
W:compases 2 y 3 son acordes de paso; en este caso el principal movimiento
W:de paso aparece en la voz media.